!!!COM: Music21
!!!OTL: barndance_Kiss-Behind-The-Door--The
!!!OMV: barndance_Kiss-Behind-The-Door--The
**kern
*clefG2
*k[f#]
*G:
*M4/4
=1
4d
4b
8bL
8aJ
8bL
8cc#XJ
=
4dd
4cc#X
8ddL
8ccnJ
8ddL
8eeJ
=
8ff#L
8eeJ
8ddL
8ccJ
8aL
8gJ
8f#L
8gJ
=
8aL
8bJ
8gL
8dJ
12f#L
12g
12f#J
8eL
8f#J
=
4d
4b
8bL
8aJ
8bL
8cc#XJ
!!linebreak:original
=
4dd
4cc#X
8ddL
8ccnJ
8ddL
8eeJ
=
8ff#L
8eeJ
8ddL
8ccJ
8aL
8gJ
8f#L
8gJ
=
12aL
12b
12aJ
4g
4g
8gL
8eJ
=||
*M4/4
4d
4b
8bL
8aJ
8bL
8cc#XJ
=
4dd
4cc#X
8ddL
8ccnJ
8ddL
8eeJ
!!linebreak:original
=
8ff#L
8eeJ
8ddL
8ccJ
8aL
8gJ
8f#L
8gJ
=
8aL
8bJ
8gL
8dJ
12f#L
12g
12f#J
8eL
8f#J
=
4d
4b
8bL
8aJ
8bL
8cc#XJ
=
4dd
4cc#X
8ddL
8ccnJ
8ddL
8eeJ
=
8ff#L
8eeJ
8ddL
8ccJ
8aL
8gJ
8f#L
8gJ
!!linebreak:original
=
12aL
12b
12aJ
4g
4g
8gL
8ff#J
=||
8ggL
8ddJ
8bL
8ddJ
4gg
8ggL
8aaJ
=
4ff#
4ee
8eeL
8ddJ
8eeL
8ggJ
=
8ff#L
8ddJ
8aL
8ddJ
4ff#
8ff#L
8ggJ
=
8eeL
8ddJ
8ddL
8cc#XJ
4dd
8eeL
8ff#J
=
8ggL
8ddJ
8bL
8ddJ
4gg
8ggL
8aaJ
!!linebreak:original
=
4ff#
4ee
4ee
8eeL
8cc#XJ
=
4dd
8ff#L
8eeJ
8ddL
8ccJ
8bL
8f#J
=
4g
8bL
8aJ
4g
8gL
8ff#J
=||
*M4/4
4d
4b
8bL
8aJ
8bL
8cc#XJ
=
4dd
4cc#X
8ddL
8ccnJ
8ddL
8eeJ
!!linebreak:original
=
8ff#L
8eeJ
8ddL
8ccJ
8aL
8gJ
8f#L
8gJ
=
8aL
8bJ
8gL
8dJ
12f#L
12g
12f#J
8eL
8f#J
=
4d
4b
8bL
8aJ
8bL
8cc#XJ
=
4dd
4cc#X
8ddL
8ccnJ
8ddL
8eeJ
=
8ff#L
8eeJ
8ddL
8ccJ
8aL
8gJ
8f#L
8gJ
!!linebreak:original
=
12aL
12b
12aJ
4g
4g
8gL
8eJ
=||
*M4/4
4d
4b
8bL
8aJ
8bL
8cc#XJ
=
4dd
4cc#X
8ddL
8ccnJ
8ddL
8eeJ
=
8ff#L
8eeJ
8ddL
8ccJ
8aL
8gJ
8f#L
8gJ
=
8aL
8bJ
8gL
8dJ
12f#L
12g
12f#J
8eL
8f#J
!!linebreak:original
=
4d
4b
8bL
8aJ
8bL
8cc#XJ
=
4dd
4cc#X
8ddL
8ccnJ
8ddL
8eeJ
=
8ff#L
8eeJ
8ddL
8ccJ
8aL
8gJ
8f#L
8gJ
=
12aL
12b
12aJ
4g
4g
8gL
8ff#J
=||
8ggL
8ddJ
8bL
8ddJ
4gg
8ggL
8aaJ
=
4ff#
4ee
8eeL
8ddJ
8eeL
8ggJ
!!linebreak:original
=
8ff#L
8ddJ
8aL
8ddJ
4ff#
8ff#L
8ggJ
=
8eeL
8ddJ
8ddL
8cc#XJ
4dd
8eeL
8ff#J
=
8ggL
8ddJ
8bL
8ddJ
4gg
8ggL
8aaJ
=
4ff#
4ee
4ee
8eeL
8cc#XJ
=
4dd
8ff#L
8eeJ
8ddL
8ccJ
8bL
8f#J
=
4g
4b
4g
12gL
12f#
12eJ
=||
*-
